icon/pk/nests.svg

<svg viewBox="0 0 48 48" fill="none" xmlns="http://www.w3.org/2000/svg" height="1em" width="1em">
  <path d="M4.99902 32.3137L20.0339 5.94293C20.958 3.98114 22.6267 3.00024 25.0402 3.00024C28.6603 3.00024 31.0172 7.9865 31.0172 7.9865C31.0172 7.9865 32.3445 8.18426 34.999 8.57977C30.9888 8.64538 28.6699 9.45221 28.0424 11.0002C27.1012 13.3223 30.4983 15.7311 31.0172 19.0041C31.5361 22.2771 29.4663 27.8053 24.4882 30.5672C21.1694 32.4085 17.0262 32.8862 12.0583 32.0002L5.95844 43.0002" stroke="black" stroke-width="4" stroke-linecap="round" stroke-linejoin="round"/>
  <path fill-rule="evenodd" clip-rule="evenodd" d="M14.9424 26.9782C17.5213 22.3287 19.2169 19.3432 20.0293 18.0218C21.2478 16.0397 26.2745 16.6373 24.4685 21.5845C23.2645 24.8827 20.0891 26.6806 14.9424 26.9782Z" fill="#2F88FF" stroke="black" stroke-width="4" stroke-linejoin="round"/>
  <path fill-rule="evenodd" clip-rule="evenodd" d="M32.9678 32.9838C34.1099 30.2473 35.7775 28.589 37.9706 28.009C40.1637 27.4289 42.1638 27.782 43.971 29.0684C42.8455 31.6643 41.1772 33.3286 38.9661 34.0611C36.7549 34.7936 34.7555 34.4345 32.9678 32.9838Z" fill="#2F88FF" stroke="black" stroke-width="4" stroke-linejoin="round"/>
  <path fill-rule="evenodd" clip-rule="evenodd" d="M26.9854 35.1143C27.7422 37.8361 29.7468 39.6565 32.9993 40.5753C36.2518 41.4942 38.9296 40.9692 41.0325 39.0005C38.4317 35.97 36.088 34.3065 34.0015 34.0101C31.915 33.7136 29.5763 34.0817 26.9854 35.1143Z" fill="#2F88FF" stroke="black" stroke-width="4" stroke-linejoin="round"/>
</svg>

<svg width="48" height="48" fill="none" xmlns="http://www.w3.org/2000/svg"><path d="M4.999 32.314 20.034 5.943C20.958 3.98 22.627 3 25.04 3c3.62 0 5.977 4.987 5.977 4.987L35 8.58c-4.01.065-6.33.872-6.957 2.42-.94 2.322 2.456 4.731 2.975 8.004.52 3.273-1.55 8.801-6.529 11.563-3.319 1.841-7.462 2.32-12.43 1.433l-6.1 11" stroke="#000" stroke-width="4" stroke-linecap="round" stroke-linejoin="round"/><path fill-rule="evenodd" clip-rule="evenodd" d="M14.942 26.978c2.58-4.65 4.275-7.635 5.087-8.956 1.219-1.982 6.245-1.385 4.44 3.563-1.204 3.298-4.38 5.096-9.527 5.393ZM32.968 32.984c1.142-2.737 2.81-4.395 5.003-4.975 2.193-.58 4.193-.227 6 1.06-1.125 2.595-2.794 4.26-5.005 4.992-2.211.733-4.21.373-5.998-1.077Z" fill="#2F88FF" stroke="#000" stroke-width="4" stroke-linejoin="round"/><path fill-rule="evenodd" clip-rule="evenodd" d="M26.985 35.114c.757 2.722 2.762 4.543 6.014 5.461 3.253.92 5.93.394 8.033-1.575-2.6-3.03-4.944-4.694-7.03-4.99-2.087-.296-4.426.072-7.017 1.104Z" fill="#2F88FF" stroke="#000" stroke-width="4" stroke-linejoin="round"/></svg>
